src/telerik-icons/solid/warning-circle.svg

<?xml version="1.0" encoding="utf-8"?>
<svg xmlns="http://www.w3.org/2000/svg" width="512" height="512" viewBox="0 0 512 512">
  <path d="M256 480c123.7 0 224-100.3 224-224S379.7 32 256 32 32 132.3 32 256s100.3 224 224 224Zm-32-352v160h64V128h-64Zm0 256v-64h64v64h-64Z" fill="#424242" fill-rule="evenodd"/>
</svg>

<?xml version="1.0" encoding="utf-8"?>
<svg width="512" height="512" viewBox="0 0 512 512" fill="none" xmlns="http://www.w3.org/2000/svg">
  <path d="M256 480C379.7 480 480 379.7 480 256C480 132.3 379.7 32 256 32C132.3 32 32 132.3 32 256C32 379.7 132.3 480 256 480ZM224 128H288V288H224V128ZM224 384V320H288V384H224Z" fill="black"/>
</svg>
